flaticon/wild-west/ingots.svg

<svg xmlns="http://www.w3.org/2000/svg" width="32" height="32" viewBox="0 0 24 24">
    <path d="M 23.15625 10.621094 L 20.757812 5.820312 C 20.742188 5.792969 20.722656 5.765625 20.699219 5.742188 C 20.691406 5.734375 20.6875 5.722656 20.679688 5.714844 C 20.644531 5.679688 20.605469 5.65625 20.5625 5.636719 C 20.550781 5.628906 20.535156 5.628906 20.523438 5.625 C 20.488281 5.613281 20.453125 5.605469 20.417969 5.605469 C 20.410156 5.601562 20.40625 5.601562 20.398438 5.601562 L 17.199219 5.601562 L 17.199219 4.800781 C 17.199219 4.734375 17.183594 4.667969 17.152344 4.609375 L 14.75 0.207031 C 14.738281 0.1875 14.71875 0.167969 14.703125 0.148438 C 14.695312 0.136719 14.6875 0.125 14.675781 0.113281 C 14.640625 0.078125 14.601562 0.0507812 14.558594 0.03125 C 14.550781 0.03125 14.542969 0.03125 14.53125 0.0273438 C 14.496094 0.0117188 14.457031 0.00390625 14.414062 0.00390625 C 14.410156 0.00390625 14.40625 0 14.398438 0 L 9.601562 0 C 9.59375 0 9.589844 0.00390625 9.585938 0.00390625 C 9.542969 0.00390625 9.503906 0.0117188 9.464844 0.0273438 C 9.457031 0.03125 9.449219 0.03125 9.441406 0.03125 C 9.398438 0.0507812 9.359375 0.078125 9.324219 0.113281 C 9.3125 0.125 9.304688 0.136719 9.292969 0.148438 C 9.277344 0.167969 9.261719 0.1875 9.25 0.207031 L 6.847656 4.609375 C 6.816406 4.667969 6.800781 4.734375 6.800781 4.800781 L 6.800781 5.601562 L 3.601562 5.601562 C 3.59375 5.601562 3.589844 5.601562 3.582031 5.605469 C 3.542969 5.605469 3.507812 5.613281 3.472656 5.625 C 3.460938 5.628906 3.449219 5.628906 3.4375 5.636719 C 3.394531 5.65625 3.355469 5.679688 3.320312 5.714844 C 3.3125 5.722656 3.308594 5.730469 3.304688 5.738281 C 3.28125 5.765625 3.257812 5.789062 3.242188 5.820312 L 0.84375 10.621094 C 0.8125 10.675781 0.800781 10.738281 0.800781 10.800781 L 0.800781 23.601562 C 0.800781 23.605469 0.800781 23.609375 0.800781 23.613281 C 0.804688 23.648438 0.808594 23.683594 0.820312 23.714844 C 0.824219 23.730469 0.828125 23.742188 0.835938 23.753906 C 0.839844 23.769531 0.84375 23.78125 0.851562 23.796875 C 0.855469 23.804688 0.863281 23.8125 0.871094 23.820312 C 0.878906 23.835938 0.886719 23.847656 0.898438 23.859375 C 0.914062 23.878906 0.933594 23.894531 0.953125 23.910156 C 0.964844 23.917969 0.972656 23.929688 0.984375 23.9375 C 1.015625 23.957031 1.050781 23.972656 1.085938 23.984375 C 1.089844 23.984375 1.089844 23.984375 1.09375 23.984375 C 1.128906 23.996094 1.164062 24 1.199219 24 L 10.800781 24 C 10.835938 24 10.871094 23.996094 10.90625 23.984375 C 10.910156 23.984375 10.910156 23.984375 10.910156 23.984375 C 10.949219 23.972656 10.980469 23.957031 11.015625 23.9375 C 11.027344 23.929688 11.035156 23.917969 11.046875 23.910156 C 11.066406 23.894531 11.085938 23.878906 11.101562 23.859375 C 11.113281 23.847656 11.121094 23.835938 11.128906 23.820312 C 11.136719 23.8125 11.144531 23.804688 11.148438 23.796875 C 11.15625 23.785156 11.160156 23.769531 11.164062 23.753906 C 11.171875 23.742188 11.175781 23.730469 11.179688 23.714844 C 11.191406 23.683594 11.195312 23.648438 11.199219 23.613281 C 11.199219 23.609375 11.199219 23.605469 11.199219 23.601562 L 11.199219 18 L 12.800781 18 L 12.800781 23.601562 C 12.800781 23.605469 12.800781 23.609375 12.800781 23.613281 C 12.804688 23.648438 12.808594 23.683594 12.820312 23.714844 C 12.824219 23.730469 12.828125 23.742188 12.835938 23.753906 C 12.839844 23.769531 12.84375 23.78125 12.851562 23.796875 C 12.855469 23.804688 12.863281 23.8125 12.871094 23.820312 C 12.878906 23.835938 12.886719 23.847656 12.898438 23.859375 C 12.914062 23.878906 12.933594 23.894531 12.953125 23.910156 C 12.964844 23.917969 12.972656 23.929688 12.984375 23.9375 C 13.015625 23.957031 13.050781 23.972656 13.085938 23.984375 C 13.089844 23.984375 13.089844 23.984375 13.09375 23.984375 C 13.128906 23.996094 13.164062 24 13.199219 24 L 22.800781 24 C 22.835938 24 22.871094 23.996094 22.90625 23.984375 C 22.910156 23.984375 22.910156 23.984375 22.910156 23.984375 C 22.949219 23.972656 22.980469 23.957031 23.015625 23.9375 C 23.027344 23.929688 23.035156 23.917969 23.046875 23.910156 C 23.066406 23.894531 23.085938 23.878906 23.101562 23.859375 C 23.113281 23.847656 23.121094 23.835938 23.128906 23.820312 C 23.136719 23.8125 23.144531 23.804688 23.148438 23.796875 C 23.15625 23.785156 23.160156 23.769531 23.164062 23.753906 C 23.171875 23.742188 23.175781 23.730469 23.179688 23.714844 C 23.191406 23.683594 23.195312 23.648438 23.199219 23.613281 C 23.199219 23.609375 23.199219 23.605469 23.199219 23.601562 L 23.199219 10.800781 C 23.199219 10.738281 23.1875 10.675781 23.15625 10.621094 Z M 22.398438 11.199219 L 22.398438 22.15625 L 20.800781 19.488281 L 20.800781 14 L 21.035156 14 L 21.71875 14.683594 C 21.796875 14.761719 21.898438 14.800781 22 14.800781 C 22.101562 14.800781 22.203125 14.761719 22.28125 14.683594 C 22.359375 14.605469 22.398438 14.503906 22.398438 14.398438 C 22.398438 14.296875 22.359375 14.195312 22.28125 14.117188 L 21.601562 13.433594 L 21.601562 12.164062 L 22.28125 11.484375 C 22.359375 11.40625 22.398438 11.300781 22.398438 11.199219 C 22.398438 11.097656 22.359375 10.996094 22.28125 10.917969 C 22.125 10.761719 21.875 10.761719 21.71875 10.917969 L 21.035156 11.601562 L 20.800781 11.601562 L 20.800781 7.695312 L 22.398438 10.894531 Z M 20 13.199219 L 20 12.398438 L 20.800781 12.398438 L 20.800781 13.199219 Z M 20 6.398438 L 20 11.601562 L 19.765625 11.601562 L 19.082031 10.917969 C 18.925781 10.761719 18.671875 10.761719 18.515625 10.917969 C 18.359375 11.074219 18.359375 11.328125 18.515625 11.484375 L 19.199219 12.164062 L 19.199219 13.433594 L 18.515625 14.117188 C 18.359375 14.273438 18.359375 14.527344 18.515625 14.683594 C 18.59375 14.761719 18.699219 14.800781 18.800781 14.800781 C 18.902344 14.800781 19.003906 14.761719 19.082031 14.683594 L 19.765625 14 L 20 14 L 20 19.199219 L 16 19.199219 L 16 18 L 16.800781 18 C 16.835938 18 16.871094 17.996094 16.90625 17.984375 C 16.910156 17.984375 16.910156 17.984375 16.910156 17.984375 C 16.921875 17.980469 16.929688 17.976562 16.9375 17.972656 C 16.949219 17.96875 16.960938 17.964844 16.972656 17.957031 C 16.984375 17.953125 17 17.945312 17.015625 17.9375 C 17.023438 17.929688 17.035156 17.921875 17.046875 17.910156 C 17.058594 17.902344 17.070312 17.894531 17.078125 17.886719 C 17.078125 17.882812 17.082031 17.882812 17.082031 17.882812 C 17.089844 17.875 17.09375 17.867188 17.101562 17.859375 C 17.113281 17.847656 17.121094 17.835938 17.128906 17.824219 C 17.136719 17.8125 17.140625 17.808594 17.148438 17.796875 C 17.152344 17.789062 17.15625 17.78125 17.160156 17.769531 C 17.164062 17.761719 17.167969 17.753906 17.171875 17.742188 C 17.175781 17.734375 17.175781 17.726562 17.179688 17.714844 C 17.191406 17.683594 17.195312 17.648438 17.195312 17.613281 C 17.199219 17.609375 17.199219 17.605469 17.199219 17.601562 L 17.199219 6.398438 Z M 10.800781 17.199219 L 7.90625 17.199219 L 9.828125 14 L 10.800781 14 L 10.800781 14.234375 L 10.117188 14.917969 C 9.960938 15.074219 9.960938 15.328125 10.117188 15.484375 C 10.195312 15.5625 10.296875 15.601562 10.398438 15.601562 C 10.503906 15.601562 10.605469 15.5625 10.683594 15.484375 L 11.367188 14.800781 L 12.632812 14.800781 L 13.316406 15.484375 C 13.394531 15.5625 13.496094 15.601562 13.601562 15.601562 C 13.703125 15.601562 13.804688 15.5625 13.882812 15.484375 C 14.039062 15.328125 14.039062 15.074219 13.882812 14.917969 L 13.199219 14.234375 L 13.199219 14 L 14.171875 14 L 16.09375 17.199219 Z M 12.398438 13.601562 L 12.398438 14 L 11.601562 14 L 11.601562 13.199219 L 12.398438 13.199219 Z M 16.398438 6 L 16.398438 16.15625 L 14.800781 13.488281 L 14.800781 1.96875 L 16.398438 4.902344 Z M 14 12 L 14 13.199219 L 13.199219 13.199219 L 13.199219 12.964844 L 13.882812 12.28125 C 13.960938 12.203125 14 12.101562 14 12 C 14 11.898438 13.960938 11.796875 13.882812 11.71875 C 13.726562 11.5625 13.472656 11.5625 13.316406 11.71875 L 12.632812 12.398438 L 11.367188 12.398438 L 10.683594 11.71875 C 10.527344 11.5625 10.273438 11.5625 10.117188 11.71875 C 10.039062 11.796875 10 11.898438 10 12 C 10 12.101562 10.039062 12.203125 10.117188 12.28125 L 10.800781 12.964844 L 10.800781 13.199219 L 10 13.199219 L 10 0.800781 L 14 0.800781 Z M 7.601562 4.902344 L 9.199219 1.96875 L 9.199219 13.488281 L 7.601562 16.15625 Z M 6.800781 17.601562 C 6.800781 17.605469 6.800781 17.609375 6.800781 17.613281 C 6.804688 17.648438 6.808594 17.683594 6.820312 17.714844 C 6.820312 17.726562 6.824219 17.734375 6.828125 17.742188 C 6.832031 17.753906 6.835938 17.761719 6.839844 17.769531 C 6.84375 17.777344 6.847656 17.789062 6.851562 17.796875 C 6.855469 17.804688 6.863281 17.8125 6.871094 17.824219 C 6.878906 17.835938 6.886719 17.847656 6.898438 17.859375 C 6.902344 17.867188 6.910156 17.875 6.914062 17.882812 C 6.917969 17.882812 6.917969 17.882812 6.921875 17.886719 C 6.929688 17.894531 6.941406 17.902344 6.953125 17.910156 C 6.964844 17.921875 6.972656 17.929688 6.984375 17.9375 C 7 17.945312 7.011719 17.953125 7.027344 17.957031 C 7.039062 17.964844 7.050781 17.96875 7.0625 17.972656 C 7.070312 17.976562 7.078125 17.980469 7.085938 17.984375 C 7.089844 17.984375 7.089844 17.984375 7.09375 17.984375 C 7.128906 17.996094 7.164062 18 7.199219 18 L 8 18 L 8 19.199219 L 4 19.199219 L 4 6.398438 L 6.800781 6.398438 Z M 1.601562 10.894531 L 3.199219 7.695312 L 3.199219 19.488281 L 1.601562 22.15625 Z M 1.90625 23.199219 L 3.828125 20 L 8.171875 20 L 10.09375 23.199219 Z M 10.398438 22.15625 L 8.800781 19.488281 L 8.800781 18 L 10.398438 18 Z M 15.199219 18 L 15.199219 19.488281 L 13.601562 22.15625 L 13.601562 18 Z M 13.90625 23.199219 L 15.828125 20 L 20.171875 20 L 22.09375 23.199219 Z M 13.90625 23.199219"/>
</svg>

<svg xmlns="http://www.w3.org/2000/svg" width="32" height="32" viewBox="0 0 24 24">
    <path d="M23.156 10.621l-2.398-4.8a.371.371 0 0 0-.059-.079c-.008-.008-.012-.02-.02-.027a.385.385 0 0 0-.116-.078c-.012-.008-.028-.008-.04-.012a.335.335 0 0 0-.105-.02c-.008-.003-.012-.003-.02-.003H17.2V4.8a.408.408 0 0 0-.047-.192L14.75.207c-.012-.02-.031-.039-.047-.059-.008-.011-.015-.023-.027-.035a.398.398 0 0 0-.117-.082c-.008 0-.016 0-.028-.004a.285.285 0 0 0-.117-.023c-.004 0-.008-.004-.016-.004H9.602c-.008 0-.012.004-.016.004a.318.318 0 0 0-.121.023c-.008.004-.016.004-.024.004a.398.398 0 0 0-.117.082l-.031.035c-.016.02-.031.04-.043.059L6.848 4.609a.408.408 0 0 0-.047.192v.8H3.6c-.007 0-.011 0-.019.004a.339.339 0 0 0-.11.02c-.011.004-.023.004-.034.012a.385.385 0 0 0-.118.078c-.007.008-.011.015-.015.023-.024.028-.047.051-.063.082L.844 10.621a.36.36 0 0 0-.043.18V23.613c.004.035.008.07.02.102a.117.117 0 0 0 .015.039.19.19 0 0 0 .016.043.104.104 0 0 0 .02.023.14.14 0 0 0 .026.04c.016.019.036.035.055.05.012.008.02.02.031.027a.48.48 0 0 0 .102.047h.008c.035.012.07.016.105.016h9.602c.035 0 .07-.004.105-.016h.004a.51.51 0 0 0 .106-.047c.011-.007.02-.019.03-.027.02-.015.04-.031.056-.05a.14.14 0 0 0 .027-.04.104.104 0 0 0 .02-.023.14.14 0 0 0 .015-.043.117.117 0 0 0 .016-.04c.011-.03.015-.066.02-.1V18h1.6v5.613c.005.035.009.07.02.102a.117.117 0 0 0 .016.039.19.19 0 0 0 .016.043.104.104 0 0 0 .02.023.14.14 0 0 0 .026.04c.016.019.036.035.055.05.012.008.02.02.031.027a.48.48 0 0 0 .102.047h.008c.035.012.07.016.105.016h9.602c.035 0 .07-.004.105-.016h.004a.51.51 0 0 0 .106-.047c.011-.007.02-.019.03-.027.02-.015.04-.031.056-.05a.14.14 0 0 0 .027-.04.104.104 0 0 0 .02-.023c.007-.012.011-.027.015-.043a.117.117 0 0 0 .016-.04c.011-.03.015-.066.02-.1V10.8a.36.36 0 0 0-.044-.18zm-.758.578v10.957l-1.597-2.668V14h.234l.684.684a.396.396 0 0 0 .68-.286.396.396 0 0 0-.118-.28l-.68-.684v-1.27l.68-.68a.405.405 0 0 0 .117-.285.396.396 0 0 0-.117-.281.396.396 0 0 0-.562 0l-.684.684h-.234V7.695l1.597 3.2zM20 13.2v-.8h.8v.8zm0-6.8v5.203h-.234l-.684-.684a.4.4 0 0 0-.566.566l.683.68v1.27l-.683.683a.4.4 0 0 0 .566.567l.684-.684H20v5.2h-4V18h.8c.036 0 .071-.004.106-.016h.004c.012-.004.02-.007.027-.011.012-.004.024-.008.036-.016.011-.004.027-.012.043-.02.007-.007.02-.015.03-.027a.217.217 0 0 0 .032-.023c0-.004.004-.004.004-.004.008-.008.012-.016.02-.024a.215.215 0 0 0 .027-.035l.02-.027.011-.027c.004-.008.008-.016.012-.028.004-.008.004-.015.008-.027a.291.291 0 0 0 .015-.102c.004-.004.004-.008.004-.011V6.398zm-9.2 10.8H7.907L9.828 14h.973v.234l-.684.684a.4.4 0 0 0 .567.566l.683-.683h1.266l.683.683a.399.399 0 0 0 .567 0 .4.4 0 0 0 0-.566l-.684-.684V14h.973l1.922 3.2zm1.598-3.597V14h-.796v-.8h.796zm4-7.602v10.156l-1.597-2.668V1.968l1.597 2.934zM14 12v1.2h-.8v-.235l.683-.684a.396.396 0 0 0 0-.562.4.4 0 0 0-.567 0l-.683.68h-1.266l-.683-.68A.4.4 0 0 0 10 12c0 .102.04.203.117.281l.684.684v.234H10V.801h4zM7.602 4.902L9.199 1.97v11.52l-1.597 2.667zm-.801 12.7v.011c.004.035.008.07.02.102 0 .012.003.02.007.027.004.012.008.02.012.028l.012.027c.003.008.011.015.02.027a.215.215 0 0 0 .026.035c.004.008.012.016.016.024.004 0 .004 0 .008.004.008.008.02.015.031.023.012.012.02.02.031.027.016.008.028.016.043.02a.139.139 0 0 0 .035.016l.024.011h.008c.035.012.07.016.105.016H8v1.2H4V6.397h2.8zm-5.2-6.707l1.598-3.2v11.793l-1.597 2.668zm.305 12.304L3.828 20h4.344l1.922 3.2zm8.492-1.043l-1.597-2.668V18h1.597zM15.2 18v1.488l-1.597 2.668V18zm-1.293 5.2l1.922-3.2h4.344l1.922 3.2zm0 0"/>
</svg>
